!!!!SEGMENT: pl-kk--kk-i-8--039_anonim--rex-sempiterne-caelitum-rerum.krn
!!!cenid: 16xx:1180
!!!COM: Anonim
!!!COM-rismid: pe30004985
!!!CDT:
!!!CNT:
!!!OTL: Rex sempiterne caelitum rerum
!!!PDT:
!!!AGN: Sacred
!!!SMS-siglum: PL-Kk
!!!SMS-shelfmark: Kk.I.8
!!!SMS-shelfwork: 039 W
!!!SMS-variant:
!!!SMS-altvar:
!!!NIFC-rismid: 1001149267
!!!URL-scan: http://repozytorium.nifc.pl/skany/pl-kk-nut--i-8
!!!ONB-nifc: UWAGA: A (brak), T1 (0043), T2 (0067), B (0090).
**kern	**text	**text	**text	**text	**kern	**text	**text	**text	**text	**kern	**text	**text	**text	**text
*part3	*part3	*part3	*part3	*part3	*part2	*part2	*part2	*part2	*part2	*part1	*part1	*part1	*part1	*part1
*staff3	*staff3	*staff3	*staff3	*staff3	*staff2	*staff2	*staff2	*staff2	*staff2	*staff1	*staff1	*staff1	*staff1	*staff1
*Ibass	*	*	*	*	*Itenor	*	*	*	*	*Itenor	*	*	*	*
*I"BASSVS.	*	*	*	*	*I"Tenor 2dus.	*	*	*	*	*I"Tenore 1mo	*	*	*	*
*I'B	*	*	*	*	*I'T 2	*	*	*	*	*I'T 1	*	*	*	*
*clefF4	*	*	*	*	*clefC4	*	*	*	*	*clefC1	*	*	*	*
*	*	*	*	*	*	*	*	*	*	*ITrd7c12	*	*	*	*
*k[]	*	*	*	*	*k[]	*	*	*	*	*k[]	*	*	*	*
*D:	*	*	*	*	*D:	*	*	*	*	*D:	*	*	*	*
*M2/1	*	*	*	*	*M2/1	*	*	*	*	*M2/1	*	*	*	*
=1	=1	=1	=1	=1	=1	=1	=1	=1	=1	=1	=1	=1	=1	=1
!	!	!	!	!	!	!	!	!	!	!LO:TX:t=P:problem:Partia zawarta w księdze tenorowej, zapisana w kluczu C1, jest poza skalą tenorową, zdecydowałem zapisać ją z transpozycją (AB)	!	!	!	!
4D/	1 Rex	2 Na-	5 Qui	.	4d\	 1 Rex	2. Na-	5 Qui	.	4A\	 1 Rex	2. Na-	5. Qui	.
8.D/	Sem-	-ſcen-	Pa-	.	8d\	Sem-	-ſcen-	Pa-	.	8A\	Sem-	-scen-	Pa-	.
.	.	.	.	.	8d\	-pi-	-te	-ſtor	.	8A\	-pi-	-te	-ſtor	.
16D/	-pi-	-te	-ſtor	.	.	.	.	.	.	.	.	.	.	.
4.G\	-ter-	qui	ae-	.	4.d\	-ter-	qui	ae-	.	4.B\	-ter-	qui	ae-	.
!LO:TX:t=P:problem:kreska pseudotaktowa	!	!	!	!	!LO:TX:t=P:problem:kreska pseudotaktowa	!	!	!	!	!LO:TX:t=P:problem:kreska pseudotaktowa	!	!	!	!
8B,<\	-ne	mun-	-ter-	.	8d\	-ne	Mun-	-ter-	.	8d\	-ne	Mun-	-ter-	.
4.A\	Cae-	-do	-n(us)	.	4.e\	Cae-	-do	-n(us)	.	4.d\	Cae-	-do	-n(us)	.
8A\	-li-	fa-	gre-	.	8e\	-li-	fa-	gre-	.	8c#X\	-li-	fa-	gre-	.
4D/	-tu(m)	-ber	-ge(m)	.	4d\	-tu(m)	-ber	-ge(m)	.	4d\	-tu(m)	-ber	-ge(m)	.
!LO:TX:t=P:problem:kreska pseudotaktowa	!	!	!	!	!LO:TX:t=P:problem:kreska pseudotaktowa	!	!	!	!	!LO:TX:t=P:problem:kreska pseudotaktowa	!	!	!	!
4D,</	re-	i-	a-	.	4d\	re-	i-	a-	.	4d\	re-	i-	a-	.
=2-	=2-	=2-	=2-	=2-	=2-	=2-	=2-	=2-	=2-	=2-	=2-	=2-	=2-	=2-
4D/	-ru(m)	-ma-	-qua	.	4d\	-ru(m)	-ma-	-qua	.	4f\	-ru(m)	-ma-	-qua	.
!	!	!	!	!	!LO:TX:t=P:problem:# above	!	!	!	!	!	!	!	!	!
(8AA/L	Cre-	-gi-	la-	.	(8c#X\L	Cre-	-gi-	la-	.	(8e\L	Cre-	-gi-	la-	.
8BB/J)	.	.	.	.	8B\J)	.	.	.	.	8d\J)	.	.	.	.
4.F#X\	-a-	-nem	-vi-	.	4.A/	-a-	-nem	-vi-	.	4.c#X\	-a-	-ne(m)	-vi-	.
!LO:TX:t=P:problem:kreska pseudotaktowa	!	!	!	!	!LO:TX:t=P:problem:kreska pseudotaktowa	!	!	!	!	!LO:TX:t=P:problem:kreska pseudotaktowa	!	!	!	!
8C#X,</	-tor	Vul-	-as	.	8A/	-tor	Vul-	-as	.	8e\	-tor	Vul-	-as	.
4.E\	o-	-t(us)	bap-	.	4.A/	o-	-t(us)	bap-	.	4.B\	o-	-t(us)	bap-	.
8E\	-mni-	tu-	-ti-	.	8G#X/	-mni-	tu-	-ti-	.	8B\	-mni-	tu-	-ti-	.
4AA/	-um	-i	-ſma-	.	4A/	-u(m)	-i	-ſma-	.	4c#\	-u(m)	-i	-ſma-	.
!LO:TX:t=P:problem:kreska pseudotaktowa	!	!	!	!	!LO:TX:t=P:problem:kreska pseudotaktowa	!	!	!	!	!LO:TX:t=P:problem:kreska pseudotaktowa	!	!	!	!
4AA/	ae-	tra-	-tis	.	4A/	ae-	tra-	-tis	.	4c#\	ae-	tra-	-tis	.
=3-	=3-	=3-	=3-	=3-	=3-	=3-	=3-	=3-	=3-	=3-	=3-	=3-	=3-	=3-
4D\	-qua-	-denſ	haec	.	4A\	-qua-	-denſ	haec	.	4d\	-qua-	-denſ	haec	.
8D\	-lis	a-	eſt	.	8d\	-lis	A-	eſt	.	8A\	-lis	A-	est	.
8D\	ae-	-da-	la-	.	8d\	ae-	-da-	la-	.	8F#X/	ae-	-da-	la-	.
8G\	-qua-	-[mo	-va-	.	8d\	-qua-	-mo	-va-	.	8B\	-qua-	-mo	-va-	.
!LO:TX:t=P:problem:defekt źródła	!	!	!	!	!	!	!	!	!	!	!	!	!	!
8G\	-[l]iſ	a]-	-[crum]	.	8d\	-lis	a-	-cru(m)	.	8A\	-lis	A-	-cru(m)	.
*	*	*	*	*	*	*	*	*ij	*	*	*	*	*	*
8.E\	an-	-da-	la-	.	8e\	an-	-da-	la-	.	8G/	an-	-da-	la-	.
!	!	!	!	!	!	!	!	!	!	!LO:TX:t=P:problem:kreska pseudotaktowa	!	!	!	!
.	.	.	.	.	8e\	-te	-mo	-va-	.	8F#/	-te	-mo	-va-	.
!LO:TX:t=P:problem:kreska pseudotaktowa	!	!	!	!	!	!	!	!	!	!	!	!	!	!
16E\	-te	-mo	-vacru(m)	.	.	.	.	.	.	.	.	.	.	.
4.A\	ſe-	no-	Men-	.	4.c#X\	ſe-	No-	-cru(m)	.	4.E/	sae-	No-	-cru(m)	.
*	*	*	*	*	*	*	*	*Xij	*	*	*	*	*	*
8B\	-cu-	-bi-	-ti-	.	8B\	-cu-	-bi-	Men-	.	8D/	-cu-	-bi-	men-	.
4A\	-la	-lem	-um	.	4c#X\	-la	-lem	-ti-	.	4.E/	-la	-lem	-ti-	.
!	!	!	!	!	!LO:TX:t=P:problem:kreska pseudotaktowa	!	!	!	!	!	!	!	!	!
8r	.	.	.	.	4c#X\	Sem-	li-	-u(m)	.	.	.	.	.	.
!LO:TX:t=P:problem:kreska pseudotaktowa	!	!	!	!	!	!	!	!	!	!LO:TX:t=P:problem:kreska pseudotaktowa	!	!	!	!
8A\	ſem-	li-	haec	.	.	.	.	.	.	8E/	Sem-	Li-	-u(m)	.
=4-	=4-	=4-	=4-	=4-	=4-	=4-	=4-	=4-	=4-	=4-	=4-	=4-	=4-	=4-
8D/	-per	-mo	eſt	.	8d\	-per	-mo	haec	.	8F#X/	-per	-mo	haec	.
8D/	Pa-	iu-	Se-	.	8d\	Pa-	iu-	eſt	.	8G/	Pa-	iu-	est	.
8Cny/	-ren-	-ga-	-pul-	.	8e\	-ren-	-ga-	se-	.	8A\	-ren-	-ga-	se-	.
8C/	-ti	-ſti	-chru(m)	.	8A\	-ti	-ſti	-pul-	.	8A\	-ti	-sti	-pul-	.
4.BB/	Fi-	ſpi-	Cri-	.	4.B\	Fi-	ſpi-	-chru(m)	.	4.A\	Fi-	spi-	-chrum	.
!	!	!	!	!	!	!	!	!	!	!LO:TX:t=P:problem:kreska pseudotaktowa	!	!	!	!
!LO:TX:t=P:problem:kreska pseudotaktowa	!	!	!	!	!LO:TX:t=P:problem:kreska pseudotaktowa	!	!	!	!	!LO:TX:t=P:problem:# above	!	!	!	!
8BB/	-li-	-ri-	-mi-	.	8B\	-li-	-ri-	.	.	8G#X\	-li-	-ri-	.	.
4AA/	-u(s)	-tu(m)	-nu(m)	.	4E/	-u(s)	-tu(m)	Cri-	.	4A\	-u(s)	-tu(m)	Cri-	.
*	*ij	*ij	*ij	*	*	*ij	*ij	*	*	*	*ij	*ij	*	*
4AA/	ſem-	li-	haec	.	4e\	Sem-	li-	-mi-	.	4A\	Sem-	Li-	-mi-	.
4.A\	-per	-mo	eſt	.	4.e\	-per	-mo	-nu(m)	.	4.A\	-per	-mo	-nu(m)	.
!LO:TX:t=P:problem:kreska pseudotaktowa	!	!	!	!	!	!	!	!	!	!	!	!	!	!
!LO:TX:t=P:problem:# above	!	!	!	!	!LO:TX:t=P:problem:kreska pseudotaktowa	!	!	!	!	!LO:TX:t=P:problem:kreska pseudotaktowa	!	!	!	!
*	*	*	*	*	*	*	*	*ij	*	*	*	*	*ij	*
8F#X\	Pa-	iu-	Se-	.	8d\	Pa-	iu-	se-	.	8A\	Pa-	iu-	se-	.
=5-	=5-	=5-	=5-	=5-	=5-	=5-	=5-	=5-	=5-	=5-	=5-	=5-	=5-	=5-
4G\	-ren-	-ga-	-pul-	.	4d\	-ren-	-ga-	-pul-	.	4B\	-ren-	-ga-	-pul-	.
4B\	-ti	-ſti	-chru(m)	.	4B\	-ti	-ſti	-chru(m)	.	4d\	-ti	-sti	-chrum	.
4.A\	Fi-	ſpi-	Cri-	.	4.e\	Fi-	ſpi-	Cri-	.	4.d\	Fi-	spi-	Cri-	.
!	!	!	!	!	!LO:TX:t=P:problem:kreska pseudotaktowa	!	!	!	!	!LO:TX:t=P:problem:kreska pseudotaktowa	!	!	!	!
8AA/	-li-	-ri-	-mi-	.	8e\	-li-	-ri-	-mi-	.	8c#X\	-li-	-ri-	-mi-	.
!	!	!	!	!	!LO:TX:t=P:problem:druga fermata odwrócona pod nutą	!	!	!	!	!LO:TX:t=P:problem:kreska pseudotaktowa	!	!	!	!
1D\	-u(s)	-tu(m)	-nu(m)	.	1A\;;	-u(s)	-tu(m)	-nu(m)	.	1d/	-u(s)	-tu(m)	-nu(m)	.
=6-	=6-	=6-	=6-	=6-	=6-	=6-	=6-	=6-	=6-	=6-	=6-	=6-	=6-	=6-
*M3/1	*Xij	*Xij	*Xij	*	*M3/1	*Xij	*Xij	*Xij	*	*M3/1	*Xij	*Xij	*Xij	*
*	*	*	*	*	*	*	*	*	*	*lig	*	*	*	*
!	!	!	!	!	!LO:LB:g=original	!	!	!	!	!LO:LB:g=original	!	!	!	!
(0D\	3 Cum	4 Qui	6 No-	7 De-	(0d\	3 Cum	4 Qui	6 No-	7 De-	1A/	3 Cum 	4 Qui	6 No-	7 De-
.	.	.	.	.	.	.	.	.	.	(>1D/	.	.	.	.
*	*	*	*	*	*	*	*	*	*	*Xlig	*	*	*	*
!LO:TX:t=P:problem:kreska pseudotaktowa	!	!	!	!	!LO:TX:t=P:problem:kreska pseudotaktowa	!	!	!	!	!LO:TX:t=P:problem:kreska pseudotaktowa	!	!	!	!
1C#X/)	.	na-	-bis	-o	1A\)	.	.	.	-o	1E/)	.	.	.	.
=7-	=7-	=7-	=7-	=7-	=7-	=7-	=7-	=7-	=7-	=7-	=7-	=7-	=7-	=7-
0D\	li-	-t(us)	di-	Pa-	0A\	li-	na-	-bis	Pa-	0F#X/	li-	na-	-bis	-o
!LO:TX:t=P:problem:kreska pseudotaktowa	!	!	!	!	!LO:TX:t=P:problem:kreska pseudotaktowa	!	!	!	!	!LO:TX:t=P:problem:kreska pseudotaktowa	!	!	!	!
!	!	!	!	!	!LO:SIC:v:s=di-:verse3	!	!	!	!	!	!	!	!	!
1D\	-vor	o-	-u	-tri	1A\	-vor	-t(us)	dj-	-tri	1D/	-vor	-t(us)	di-	Pa-
=8-	=8-	=8-	=8-	=8-	=8-	=8-	=8-	=8-	=8-	=8-	=8-	=8-	=8-	=8-
*	*	*	*	*	*lig	*	*	*	*	*	*	*	*	*
1D\	et-	-lim	qui	Sit	1A\	et-	o-	-u	Sit	2d\	et	o-	-u	-tri
.	.	.	.	.	.	.	.	.	.	2c\	.	-lim	.	.
*lig	*	*	*	*	*	*	*	*	*	*	*	*	*	*
(>1BB/	-fra-	e	de-	glo-	1B\	-fra-	-lim	.	.	2d\	.	.	.	.
.	.	.	.	.	.	.	.	.	.	2e\	fra-	è	.	.
*	*	*	*	*	*Xlig	*	*	*	*	*	*	*	*	*
!LO:TX:t=P:problem:kreska pseudotaktowa	!	!	!	!	!LO:TX:t=P:problem:kreska pseudotaktowa	!	!	!	!	!LO:TX:t=P:problem:kreska pseudotaktowa	!	!	!	!
1AA/)	-us	.	.	.	1E/	-uſ	è	qui	glo-	1c/	-uſ	.	qui	Sit
*Xlig	*	*	*	*	*	*	*	*	*	*	*	*	*	*
=9-	=9-	=9-	=9-	=9-	=9-	=9-	=9-	=9-	=9-	=9-	=9-	=9-	=9-	=9-
*	*	*	*	*	*lig	*	*	*	*	*	*	*	*	*
1.E\	Dae-	Vir-	-bi-	-ri-	1E/	Dae-	Vir-	de-	-ri-	1.B/	Dae-	Vir-	de-	glo-
.	.	.	.	.	1e\	-mo-	-gi-	-bi-	-a	.	.	.	.	.
2E\	-mo-	-gi-	-ta	-a	.	.	.	.	.	2B\	-mo-	-gi-	-bi-	-ria
*	*	*	*	*	*Xlig	*	*	*	*	*	*	*	*	*
!LO:TX:t=P:problem:kreska pseudotaktowa	!	!	!	!	!LO:TX:t=P:problem:kreska pseudotaktowa	!	!	!	!	!LO:TX:t=P:problem:kreska pseudotaktowa	!	!	!	!
1AA/	-nis	-ne	re-	et	1c#X\	-nis	-ne	-ta	et	1A/	-nis	-ne	-ta	et
=10-	=10-	=10-	=10-	=10-	=10-	=10-	=10-	=10-	=10-	=10-	=10-	=10-	=10-	=10-
*	*	*	*	*	*	*	*	*	*	*lig	*	*	*	*
1F#X\	fae-	Nunc	-dem-	Fi-	0d\	fae-	Nunc	Re-	Fi-	1d/	fae-	Nunc	Re-	Fi-
(2F#\	-daſ-	è	-ptor	-li-	.	.	.	.	.	1A/	.	.	.	-li-
2E\)	.	.	.	.	.	.	.	.	.	.	.	.	.	.
*	*	*	*	*	*	*	*	*	*	*Xlig	*	*	*	*
!LO:TX:t=P:problem:kreska pseudotaktowa	!	!	!	!	!LO:TX:t=P:problem:kreska pseudotaktowa	!	!	!	!	!LO:TX:t=P:problem:kreska pseudotaktowa	!	!	!	!
1D\	-set	ſe-	af-	-o	1d\	-daſ-	è	-dem-	-li-	1F#X/	-daſ-	.	-dem-	-o
=11-	=11-	=11-	=11-	=11-	=11-	=11-	=11-	=11-	=11-	=11-	=11-	=11-	=11-	=11-
2GG/	hu-	-pul-	.	qui	0d\	-set	ſe-	-ptor	-o	0B/	-set	è	-ptor	qui
2AA/	.	.	.	.	.	.	.	.	.	.	.	.	.	.
2BB/	.	.	.	.	.	.	.	.	.	.	.	.	.	.
2Cny/	.	.	.	.	.	.	.	.	.	.	.	.	.	.
!LO:TX:t=P:problem:kreska pseudotaktowa	!	!	!	!	!LO:TX:t=P:problem:kreska pseudotaktowa	!	!	!	!	!LO:TX:t=P:problem:kreska pseudotaktowa	!	!	!	!
1D\	.	.	.	.	1d\	hu-	-pul-	af-	qui	1A/	hu-	Se-	af-	.
=12-	=12-	=12-	=12-	=12-	=12-	=12-	=12-	=12-	=12-	=12-	=12-	=12-	=12-	=12-
*	*	*	*	*	*lig	*	*	*	*	*	*	*	*	*
1E\	-ma-	-chro	-fi-	à	1B\	-ma-	-chro	-fi-	a	2G/	-ma-	-pul-	-fi-	a
.	.	.	.	.	.	.	.	.	.	2F#X/	.	.	.	.
!LO:TX:t=P:problem:# above	!	!	!	!	!LO:SIC:v:s=2c#	!	!	!	!	!	!	!	!	!
1C#X/	-nu(m)	na[s]-	-x(us)	mor-	1cny\	.	.	.	.	2G/	.	.	.	.
.	.	.	.	.	.	.	.	.	.	2A/	.	.	.	.
*	*	*	*	*	*Xlig	*	*	*	*	*	*	*	*	*
!LO:TX:t=P:problem:kreska pseudotaktowa	!	!	!	!	!LO:TX:t=P:problem:kreska pseudotaktowa	!	!	!	!	!LO:TX:t=P:problem:kreska pseudotaktowa	!	!	!	!
1D\	[g]e-	-ce-	Cru-	-tu-	1A\	-nu(m)	naſ-	-xus	mor-	1F#X/	-num	-chro	-x(us)	.
=13-	=13-	=13-	=13-	=13-	=13-	=13-	=13-	=13-	=13-	=13-	=13-	=13-	=13-	=13-
!	!	!	!	!	!	!	!	!	!	!LO:SIC:v:l:s=mor-	!	!	!	!
!	!	!	!	!	!	!	!	!	!	!LO:TX:t=P:problem:nieczytelny zapis słowa nasceris	!	!	!	!
0AA/	-n(us)	-ris	-ci	-is	0A\	ge-	-ce-	Cru-	-tu-	0E/	ge-	naſ-	Cru-	or-
!LO:TX:t=P:problem:kreska pseudotaktowa	!	!	!	!	!LO:TX:t=P:problem:kreska pseudotaktowa	!	!	!	!	!LO:TX:t=P:problem:kreska pseudotaktowa	!	!	!	!
1D\	Tu	te-	no-	Sur-	1A\,<	-n(us)	-ris	-ci	-is	1D/	-n(us)	-ce-	-ci	-tu-
=14-	=14-	=14-	=14-	=14-	=14-	=14-	=14-	=14-	=14-	=14-	=14-	=14-	=14-	=14-
*	*	*	*	*	*lig	*	*	*	*	*lig	*	*	*	*
1.D\	car-	-cum-	-ſtrae	-re-	1F#X/	Tu	Te-	no-	ſur-	1A/	Tu	-ris	no-	-is
.	.	.	.	.	1G/	.	.	.	.	1B/	.	Te-	.	Sur-
2D/	-ne	-q(ue)	de-	-xit	.	.	.	.	.	.	.	.	.	.
*	*	*	*	*	*Xlig	*	*	*	*	*Xlig	*	*	*	*
!	!	!	!	!	!	!	!	!	!	!LO:SIC:v:s=2c#	!	!	!	!
!LO:TX:t=P:problem:kreska pseudotaktowa	!	!	!	!	!LO:TX:t=P:problem:kreska pseudotaktowa	!	!	!	!	!LO:TX:t=P:problem:kreska pseudotaktowa	!	!	!	!
1C#X/	a-	nos	-di-	ac	1A\	Car-	-cum-	-ſtrae	-re-	1c/	car-	-cu(m)-	.	-re-
=15-	=15-	=15-	=15-	=15-	=15-	=15-	=15-	=15-	=15-	=15-	=15-	=15-	=15-	=15-
1.BB/	-mi-	a	-ſti	.	0B\	-ne	-q(ue)	de-	-xit	0d/	-ne	-q(ue)	.	-xit
2C#X/	.	.	.	.	.	.	.	.	.	.	.	.	.	.
!LO:TX:t=P:problem:kreska pseudotaktowa	!	!	!	!	!	!	!	!	!	!LO:TX:t=P:problem:kreska pseudotaktowa	!	!	!	!
1D\	-ct(us)	.	.	Pa-	2B\	a-	nos	-di-	ac	1d/	a-	nos	-ſtrae	ac
!	!	!	!	!	!LO:TX:t=P:problem:kreska pseudotaktowa	!	!	!	!	!	!	!	!	!
.	.	.	.	.	2A\	.	.	.	.	.	.	.	.	.
=16-	=16-	=16-	=16-	=16-	=16-	=16-	=16-	=16-	=16-	=16-	=16-	=16-	=16-	=16-
0E\	per-	mor-	pro-	-ra-	1.G#X/	-mi-	a	-ſti	Pa-	2B\	-mi-	a	de-	Pa-
.	.	.	.	.	.	.	.	.	.	4c\	.	.	-di-	.
.	.	.	.	.	.	.	.	.	.	4d\	.	.	.	.
.	.	.	.	.	.	.	.	.	.	1.e/	.	.	.	.
.	.	.	.	.	2E/	.	.	.	.	.	.	.	.	.
!LO:TX:t=P:problem:kreska pseudotaktowa	!	!	!	!	!	!	!	!	!	!	!	!	!	!
1E\	-di-	-tu-	-di-	-cly-	2F#X/	-ct(us)	.	.	.	.	.	.	.	.
!	!	!	!	!	!LO:TX:t=P:problem:kreska pseudotaktowa	!	!	!	!	!LO:TX:t=P:problem:kreska pseudotaktowa	!	!	!	!
.	.	.	.	.	2G#/	.	.	.	.	2d\	-ct(us)	.	-ſti	.
=17-	=17-	=17-	=17-	=17-	=17-	=17-	=17-	=17-	=17-	=17-	=17-	=17-	=17-	=17-
!LO:TX:t=P:problem:kreska pseudotaktowa	!	!	!	!	!	!	!	!	!	!	!	!	!	!
0.AA/	-ta(m)	-is	-g(us)	-to	2A/	per-	mor-	pro-	-ra-	1.c#X/	per-	Mor-	pro-	-ra-
.	.	.	.	.	2B\	.	.	.	.	.	.	.	.	.
!	!	!	!	!	!LO:SIC:v:s=2c#	!	!	!	!	!	!	!	!	!
.	.	.	.	.	2c\	.	.	.	.	.	.	.	.	.
.	.	.	.	.	2d\	.	.	.	.	2c#\	-di-	-tu-	-di-	-cli-
!	!	!	!	!	!	!	!	!	!	!LO:TX:t=P:problem:kreska pseudotaktowa	!	!	!	!
.	.	.	.	.	2e\	.	.	.	.	1c#/	-ta(m)	-is	-g(us)	-to
!	!	!	!	!	!LO:TX:t=P:problem:kreska pseudotaktowa	!	!	!	!	!	!	!	!	!
.	.	.	.	.	2d\	-di-	-tu-	-di-	-cli-	.	.	.	.	.
=18-	=18-	=18-	=18-	=18-	=18-	=18-	=18-	=18-	=18-	=18-	=18-	=18-	=18-	=18-
*	*	*	*	*	*	*	*	*	*	*lig	*	*	*	*
1A\	for-	iu-	pre-	In	0c#X\	-ta(m)	-is	-g(us)	-to	1E/	for-	Ju-	pre-	in
!	!	!	!	!	!	!	!	!	!	!LO:TX:t=P:problem:# above	!	!	!	!
1A\	-m(am)	-bes	-ti-	ſem-	.	.	.	.	.	1F#X/	.	.	.	.
*	*	*	*	*	*	*	*	*	*	*Xlig	*	*	*	*
!LO:SIC:v:s=2G#	!	!	!	!	!	!	!	!	!	!LO:TX:t=P:problem:# above	!	!	!	!
!LO:TX:t=P:problem:kreska pseudotaktowa	!	!	!	!	!LO:TX:t=P:problem:kreska pseudotaktowa	!	!	!	!	!LO:TX:t=P:problem:kreska pseudotaktowa	!	!	!	!
1G\	re-	Se-	-u(m)	-pi-	1B\	for-	Ju-	pre-	in	1G#X/	.	.	-ti-	ſem-
=19-	=19-	=19-	=19-	=19-	=19-	=19-	=19-	=19-	=19-	=19-	=19-	=19-	=19-	=19-
1.F#X\	-for-	-pul-	Sa-	-ter-	0A\	-m(am)	-bes	-tiu(m)	ſem-	0A/	-m(am)	-bes	-u(m)	-pi-
2G\	.	.	.	.	.	.	.	.	.	.	.	.	.	.
!LO:TX:t=P:problem:kreska pseudotaktowa	!	!	!	!	!	!	!	!	!	!LO:TX:t=P:problem:kreska pseudotaktowa	!	!	!	!
1A\	.	.	.	.	2d\	re-	ſe-	Sa-	-pi-	1A/	re-	ſe-	ſa-	-ter-
!	!	!	!	!	!LO:TX:t=P:problem:kreska pseudotaktowa	!	!	!	!	!	!	!	!	!
.	.	.	.	.	2cny\	-for-	.	.	.	.	.	.	.	.
=20-	=20-	=20-	=20-	=20-	=20-	=20-	=20-	=20-	=20-	=20-	=20-	=20-	=20-	=20-
1.B\	.	.	-lu-	.	0B\	.	-pul-	-lu-	-ter-	1F#X/	-for-	-pul-	-lu-	-na
.	.	.	.	.	.	.	.	.	.	2Gny/	-mas	-tos	.	.
2A\	.	.	.	.	.	.	.	.	.	2A/	.	.	.	.
!LO:TX:t=P:problem:kreska pseudotaktowa	!	!	!	!	!LO:TX:t=P:problem:kreska pseudotaktowa	!	!	!	!	!	!	!	!	!
1G\	-maſ	-tos	-tis	-na	1A\	-mas	-tos	-tis	-na	2B\	.	.	-tis	.
!	!	!	!	!	!	!	!	!	!	!LO:TX:t=P:problem:kreska pseudotaktowa	!	!	!	!
!	!	!	!	!	!	!	!	!	!	!LO:TX:t=P:problem:# above	!	!	!	!
.	.	.	.	.	.	.	.	.	.	2c#X\	.	.	.	.
=21-	=21-	=21-	=21-	=21-	=21-	=21-	=21-	=21-	=21-	=21-	=21-	=21-	=21-	=21-
!LO:TX:t=P:problem:# above	!	!	!	!	!	!	!	!	!	!	!	!	!	!
1F#X\	ar-	ſur-	ſan-	ſae-	0A\	ar-	ſur-	ſan-	ſae-	0d/	ar-	ſur-	ſan-	ſae-
1.A\	.	.	.	.	.	.	.	.	.	.	.	.	.	.
!	!	!	!	!	!	!	!	!	!	!LO:TX:t=P:problem:# above	!	!	!	!
!	!	!	!	!	!LO:TX:t=P:problem:kreska pseudotaktowa	!	!	!	!	!LO:TX:t=P:problem:kreska pseudotaktowa	!	!	!	!
.	.	.	.	.	1A\	-ti-	-ge-	-gui-	-cu-	1c#X/	-ti-	-ge-	-gui-	-cu-
2A\	-ti-	-ge-	-gui-	-cu-	.	.	.	.	.	.	.	.	.	.
=22-	=22-	=22-	=22-	=22-	=22-	=22-	=22-	=22-	=22-	=22-	=22-	=22-	=22-	=22-
0.D\;;	-fex	-re	-ne	-la.	0.A\;;	-fex	-re	-ne	-la	0.d/;;	-fex.	-re.	-nem.	-la
==	==	==	==	==	==	==	==	==	==	==	==	==	==	==
*-	*-	*-	*-	*-	*-	*-	*-	*-	*-	*-	*-	*-	*-	*-
!!!system-decoration: s1,s2,s3
!!!RDF**kern: > = above
!!!RDF**kern: < = below
!!!EED: Andrzej Borzym
!!!EST: 2021-04-07
!!!AIN: 1 bass 2 tenor
!!!ENC: Anastazja Marusiak
!!!END: 2021-03-27
